icons/dog.svg

<?xml version="1.0" encoding="utf-8"?>
<svg version="1.1" xmlns="http://www.w3.org/2000/svg" xmlns:xlink="http://www.w3.org/1999/xlink" viewBox="10.65 10.35 42.6 44">
<path d="M46.841,28.052c3.902,1.126,7.805-3.977,5.778-11.107c-2.026-7.129-9.456-6.154-10.731-5.253c0,0-7.354-3.077-11.669,0.338 c0,0-5.178-5.065-11.257,6.191c0,0-2.139,11.257,6.754,9.343c5.178-1.914-1.801-7.429,1.351-11.482c0,0,0.901,5.741,3.152,7.655 c0,0-3.152,3.602,1.013,5.966c0,0-1.576,5.741-7.992,8.893c-6.416,3.152-4.166,9.231-4.503,10.244c0,0-8.217,3.715-7.879-4.728 c0,0-2.139,11.032,9.343,8.893c0,0-0.27,1.013,0.765,1.126c1.036,0.113,13.418,0,13.418,0s3.94-0.563,0-4.39 c0,0,2.083-1.576,2.026-2.477l0.001,6.529c0,0,4.839,0.507,5.683-0.056c0.844-0.563,0.901-2.251-1.013-2.702 s1.823-18.106-0.804-20.733c0,0,3.336-2.1,1.835-6.002c0,0,3.152-3.752,2.176-9.381C47.817,19.497,41.964,25.651,46.841,28.052z" fill="#8B4513"/>
</svg>

<?xml version="1.0" encoding="utf-8"?>
<svg viewBox="10.65 10.35 42.6 44" xmlns="http://www.w3.org/2000/svg">
  <path d="M 46.841 28.052 C 50.743 29.178 54.646 24.075 52.619 16.945 C 50.593 9.816 43.163 10.791 41.888 11.692 C 41.888 11.692 34.534 8.615 30.219 12.03 C 30.219 12.03 21.555 7.644 19.387 18.901 C 19.387 18.901 16.823 29.478 25.716 27.564 C 30.894 25.65 23.915 20.135 27.067 16.082 C 27.067 16.082 27.968 21.823 30.219 23.737 C 30.219 23.737 27.067 27.339 31.232 29.703 C 31.232 29.703 29.656 35.444 23.24 38.596 C 16.824 41.748 19.074 47.827 18.737 48.84 C 18.737 48.84 10.52 52.555 10.858 44.112 C 10.858 44.112 8.719 55.144 20.201 53.005 C 20.201 53.005 19.931 54.018 20.966 54.131 C 22.002 54.244 34.384 54.131 34.384 54.131 C 34.384 54.131 38.324 53.568 34.384 49.741 C 34.384 49.741 36.467 48.165 36.41 47.264 L 36.411 53.793 C 36.411 53.793 41.25 54.3 42.094 53.737 C 42.938 53.174 42.995 51.486 41.081 51.035 C 39.167 50.584 42.904 32.929 40.277 30.302 C 40.277 30.302 43.613 28.202 42.112 24.3 C 42.112 24.3 45.264 20.548 44.288 14.919 C 47.817 19.497 41.964 25.651 46.841 28.052 Z" fill="#8B4513"/>
</svg>
